docs/static/img/logos/percona.svg

<svg width="28" height="28" viewBox="0 0 28 28" fill="none" xmlns="http://www.w3.org/2000/svg">
<path d="M14 0.0644531C6.26806 0.0644531 0 6.31797 0 14.0321C0 18.8577 2.45295 23.1115 6.18253 25.6207V14.0394C6.18242 14.0217 6.18002 14.0046 6.18002 13.9871C6.18002 13.9694 6.18242 13.9523 6.18253 13.9346V13.8364H6.18723C6.26391 9.34007 9.72388 5.71855 13.9882 5.71855C18.3005 5.71855 21.7962 9.42049 21.7962 13.9871C21.7962 18.5535 18.3005 22.2555 13.9882 22.2555C12.3086 22.2555 10.7569 21.6885 9.48336 20.7332V27.2523C10.9009 27.7344 12.419 27.9997 14 27.9997C21.7319 27.9997 28 21.7462 28 14.0321C28 6.31797 21.7319 0.0644531 14 0.0644531Z" fill="url(#paint0_linear)"/>
<path d="M18.7244 14.276C18.7244 16.9181 16.6329 19.0599 14.0527 19.0599C11.4725 19.0599 9.38086 16.9181 9.38086 14.276C9.38086 11.634 11.4725 9.49219 14.0527 9.49219C16.6329 9.49219 18.7244 11.634 18.7244 14.276Z" fill="#FCB42F"/>
<defs>
<linearGradient id="paint0_linear" x1="14" y1="0.0644531" x2="14" y2="27.9997" gradientUnits="userSpaceOnUse">
<stop stop-color="#FBB32F"/>
<stop offset="0.504739" stop-color="#C11511"/>
<stop offset="1" stop-color="#C11411"/>
</linearGradient>
</defs>
</svg>

<svg xmlns="http://www.w3.org/2000/svg" width="28" height="28" fill="none" xmlns:v="https://vecta.io/nano"><path d="M14 .064C6.268.064 0 6.318 0 14.032c0 4.826 2.453 9.079 6.183 11.589V14.039c0-.018-.003-.035-.003-.052s.002-.035.003-.053v-.098h.005c.077-4.496 3.537-8.118 7.801-8.118 4.312 0 7.808 3.702 7.808 8.269s-3.496 8.268-7.808 8.268c-1.68 0-3.231-.567-4.505-1.522v6.519A14 14 0 0 0 14 28c7.732 0 14-6.253 14-13.968S21.732.064 14 .064z" fill="url(#A)"/><path d="M18.724 14.276c0 2.642-2.091 4.784-4.672 4.784s-4.672-2.142-4.672-4.784 2.092-4.784 4.672-4.784 4.672 2.142 4.672 4.784z" fill="#fcb42f"/><defs><linearGradient id="A" x1="14" y1=".064" x2="14" y2="28" gradientUnits="userSpaceOnUse"><stop stop-color="#fbb32f"/><stop offset=".505" stop-color="#c11511"/><stop offset="1" stop-color="#c11411"/></linearGradient></defs></svg>
